dist/svgs/unicons/line/chart-growth.svg

<svg xmlns="http://www.w3.org/2000/svg" viewBox="0 0 24 24"><path d="M21 20h-1V5a1 1 0 00-2 0v15h-2V9a1 1 0 00-2 0v11h-2v-7a1 1 0 00-2 0v7H8v-3a1 1 0 00-2 0v3H4V3a1 1 0 00-2 0v18a1 1 0 001 1h18a1 1 0 000-2z"/></svg>

<svg xmlns="http://www.w3.org/2000/svg" viewBox="0 0 24 24"><path d="M21,20H20V5a1,1,0,0,0-2,0V20H16V9a1,1,0,0,0-2,0V20H12V13a1,1,0,0,0-2,0v7H8V17a1,1,0,0,0-2,0v3H4V3A1,1,0,0,0,2,3V21a1,1,0,0,0,1,1H21a1,1,0,0,0,0-2Z"/></svg>
